!!!OTL: Der Fuerstenberger. / (Weinlied.)
!!!ARE: Europa, Mitteleuropa, Deutschland
!!!SCT: A0337
!!!TXL: @@DE
!!!YEM: Copyright 1995, estate of Helmut Schaffrath.
**kern	**text
*M4/4	*
*met(c)	*
*k[]	*
*A:	*
!LO:TX:a:t=A dur	!
{4ee	I._Dort
=1	=1
4e	ni-
4e	-den
4a	an
4b/	dem
=2	=2
(4.cc#	Rei-
8dd)	.
4ee}	-ne,
{4a	da
=3	=3
4dd	iſt
4cc#	ein
4b	berg
4b	be-
=4	=4
2a	-kant,
4r}	.
{4ee	Der
=5	=5
4e	tregt
4e	den
4a	gů-
4b/	-ten
=6	=6
(4.cc#	wei-
8dd)	.
4ee}	-ne:
{4a	Für-
=7	=7
4dd	-ſten-
4cc#	-ber-
4b	-ger
4b	ge-
=8	=8
2a	-nant.
4r}	.
{4ee	Sein
=9	=9
4dd	kraft
4dd	iſt
4.cc#	hoch
8dd	ʒu
=10	=10
2ee	lo-
4ee}	-ben,
{4dd	die
=11	=11
4cc#	er
4ee	be-
4ee	-wei-
4dd#	-ſen
=12	=12
2ee	kan,
4r}	.
{4ee	wer
=13	=13
4cc#	in
4cc#	ʒu
4a	faſt
4a	wil
=14	=14
2ee	to-
4cc#}	-ben,
{4dd	den
=15	=15
4b/	greift
4a	er
4a	dü-
4g#	-ckiſch
=16	=16
2a	an.
4r}	.
{4ee	wer
=17	=17
4cc#	in
4cc#	ʒu
4a	faſt
4a	wil
=18	=18
2ee	to-
4cc#}	-ben,
{4dd	den
=19	=19
4b/	greift
4a	er
4a	dü-
4g#	-ckiſch
=20	=20
2a	an.
4r}	.
==	==
!!!GTL: Trink. und Zechlieder, incl. Fastnacht- u. Martinslieder
!!!AGN: Romanze, Ballade, Lied, Trinklied
!! Ochsenkun, Tabulaturbuch 1558 Bl. 79.
!!!ONB: ESAC (Essen Associative Code) Database: ALTDEU
!!!AMT: simple quadruple
!!!AIN: vox
!!!EED: Helmut Schaffrath
!!!EEV: 1.0
!!!URL-scan: https://rosdok.uni-rostock.de/mcrviewer/recordIdentifier/rosdok_ppn738218359/iview2/phys_0484.iview2?x=-495.6391625615763&y=820.4054187303409&scale=0.4629418472063854&rotation=0&layout=singlePageLayout&logicalDiv=log_0013
!!!ENC: Anna Maria Matuszewska
!!!EEV: 2024/13/03
*-	*-
